original/processed/nativescript.svg

<?xml version="1.0" encoding="UTF-8" standalone="no"?>
<svg
   xmlns:dc="http://purl.org/dc/elements/1.1/"
   xmlns:cc="http://creativecommons.org/ns#"
   xmlns:rdf="http://www.w3.org/1999/02/22-rdf-syntax-ns#"
   xmlns:svg="http://www.w3.org/2000/svg"
   xmlns="http://www.w3.org/2000/svg"
   style="display: block;"
   height="515"
   width="515"
   version="1.1"
   id="svg">
  <metadata
     id="metadata9">
    <rdf:RDF>
      <cc:Work
         rdf:about="">
        <dc:format>image/svg+xml</dc:format>
        <dc:type
           rdf:resource="http://purl.org/dc/dcmitype/StillImage" />
        <dc:title></dc:title>
      </cc:Work>
    </rdf:RDF>
  </metadata>
  <defs
     id="defs7" />
  <g
     transform="matrix(1.1771064,0,0,1.1771064,-50.329833,-54.333702)"
     id="svgg">
    <path
       style="fill:#000000;fill-rule:evenodd;stroke:none"
       d="m 118,85.868 c 0,0.478 -1.903,1.124 -4.228,1.436 -2.326,0.312 -4.389,1.046 -4.584,1.631 -0.195,0.586 -0.893,1.065 -1.551,1.065 -0.657,0 -1.844,0.9 -2.637,2 -0.793,1.1 -2.062,2 -2.821,2 -1.791,0 -8.179,6.388 -8.179,8.179 0,0.759 -0.9,2.028 -2,2.821 -1.1,0.793 -2,1.98 -2,2.637 0,0.658 -0.479,1.356 -1.065,1.551 -0.585,0.195 -1.319,2.258 -1.631,4.584 C 86.992,116.097 86.346,118 85.868,118 85.388,118 85,141.039 85,169.5 c 0,29.929 -0.378,51.5 -0.902,51.5 -0.496,0 -1.213,2.683 -1.594,5.962 -0.536,4.622 -1.12,6.099 -2.598,6.568 -1.048,0.333 -1.906,1.426 -1.906,2.43 0,1.004 -0.675,2.085 -1.5,2.402 -0.825,0.316 -1.5,1.324 -1.5,2.239 0,1.808 -3.613,5.399 -5.432,5.399 -0.62,0 -1.763,0.883 -2.541,1.963 -0.779,1.08 -2.673,2.24 -4.21,2.577 -1.537,0.338 -3.051,1.029 -3.365,1.537 -0.313,0.508 -1.668,0.923 -3.011,0.923 -1.343,0 -2.441,0.45 -2.441,1 0,0.55 -1.8,1 -4,1 -3.6,0 -4,0.25 -4,2.5 0,2.25 0.4,2.5 4,2.5 2.2,0 4,0.45 4,1 0,0.55 1.098,1 2.441,1 1.343,0 2.698,0.415 3.011,0.923 0.314,0.508 1.828,1.199 3.365,1.537 1.537,0.337 3.431,1.497 4.21,2.577 0.778,1.08 1.921,1.963 2.541,1.963 1.819,0 5.432,3.591 5.432,5.399 0,0.915 0.675,1.923 1.5,2.239 0.825,0.317 1.5,1.398 1.5,2.402 0,1.004 0.858,2.097 1.906,2.43 1.478,0.469 2.062,1.946 2.598,6.568 0.381,3.279 1.098,5.962 1.594,5.962 0.524,0 0.902,21.571 0.902,51.5 0,28.461 0.388,51.5 0.868,51.5 0.478,0 1.124,1.903 1.436,4.228 0.312,2.326 1.046,4.389 1.631,4.584 0.586,0.195 1.065,0.893 1.065,1.551 0,0.657 0.9,1.844 2,2.637 1.1,0.793 2,2.062 2,2.821 0,1.791 6.388,8.179 8.179,8.179 0.759,0 2.028,0.9 2.821,2 0.793,1.1 1.98,2 2.637,2 0.658,0 1.356,0.479 1.551,1.065 0.195,0.585 2.258,1.319 4.584,1.631 2.325,0.312 4.228,0.958 4.228,1.436 0,0.477 12.6,0.868 28,0.868 h 28 V 326 c 0,-57.2 0.285,-104 0.633,-104 0.977,0 4.364,4.17 4.389,5.403 0.011,0.603 1.586,2.443 3.5,4.087 1.913,1.645 3.478,3.752 3.478,4.683 0,0.931 0.877,1.971 1.949,2.311 1.072,0.34 2.227,1.495 2.567,2.567 0.34,1.072 1.038,1.949 1.551,1.949 0.513,0 0.933,0.488 0.933,1.083 0,0.596 1.575,2.613 3.5,4.483 1.925,1.869 3.5,3.916 3.5,4.548 0,0.633 1.575,2.635 3.5,4.451 1.925,1.815 3.5,3.575 3.5,3.91 0,0.675 1.365,2.407 4.75,6.028 1.238,1.323 2.25,2.856 2.25,3.406 0,1.275 4.781,6.091 6.045,6.091 0.525,0 0.955,0.739 0.955,1.642 0,0.903 1.35,2.932 3,4.508 1.65,1.577 3,3.268 3,3.759 0,0.49 1.575,2.466 3.5,4.391 1.925,1.925 3.5,4.025 3.5,4.667 0,0.642 1.575,2.653 3.5,4.468 1.925,1.816 3.5,3.606 3.5,3.979 0,0.372 1.012,1.76 2.25,3.083 3.458,3.699 4.75,5.356 4.75,6.093 0,0.37 1.575,2.159 3.5,3.975 1.925,1.815 3.5,3.789 3.5,4.386 0,0.596 1.575,2.614 3.5,4.483 1.925,1.87 3.5,3.887 3.5,4.483 0,0.595 0.42,1.083 0.933,1.083 0.513,0 1.211,0.877 1.551,1.949 0.34,1.072 1.495,2.227 2.567,2.567 1.072,0.34 1.949,1.316 1.949,2.168 0,0.853 1.8,3.297 4,5.432 2.2,2.135 4,4.362 4,4.95 0,0.588 1.462,2.501 3.25,4.251 1.788,1.751 3.396,3.858 3.575,4.683 0.179,0.825 0.749,1.653 1.268,1.839 1.683,0.606 5.907,5.696 5.907,7.119 0,0.573 0.42,1.042 0.933,1.042 0.513,0 1.211,0.877 1.551,1.949 0.34,1.072 1.495,2.227 2.567,2.567 1.072,0.34 1.949,1.324 1.949,2.187 0,0.862 1.125,2.61 2.5,3.885 1.375,1.274 2.5,2.815 2.5,3.423 0,0.609 0.45,0.829 1,0.489 0.55,-0.34 1,0.069 1,0.908 0,0.839 1.524,3.049 3.386,4.911 1.862,1.862 3.685,4.329 4.051,5.482 0.366,1.153 1.541,2.375 2.612,2.714 1.07,0.34 2.217,1.699 2.549,3.019 0.331,1.32 1.903,3.428 3.493,4.683 1.59,1.256 2.895,2.827 2.9,3.493 0.005,0.665 1.809,3.046 4.009,5.29 2.2,2.244 4,4.707 4,5.473 0,0.766 0.877,1.671 1.949,2.011 1.072,0.34 2.227,1.495 2.567,2.567 0.34,1.072 1.038,1.949 1.551,1.949 0.513,0 0.933,0.482 0.933,1.071 0,3.639 2.247,3.929 30.429,3.929 15.164,0 27.571,-0.391 27.571,-0.868 0,-0.478 1.903,-1.124 4.228,-1.436 2.326,-0.312 4.389,-1.046 4.584,-1.631 0.195,-0.586 0.893,-1.065 1.551,-1.065 0.657,0 1.844,-0.9 2.637,-2 0.793,-1.1 2.062,-2 2.821,-2 1.791,0 8.179,-6.388 8.179,-8.179 0,-0.759 0.9,-2.028 2,-2.821 1.1,-0.793 2,-1.98 2,-2.637 0,-0.658 0.479,-1.356 1.065,-1.551 0.585,-0.195 1.319,-2.258 1.631,-4.584 0.312,-2.325 0.958,-4.228 1.436,-4.228 0.48,0 0.868,-23.039 0.868,-51.5 0,-29.929 0.378,-51.5 0.902,-51.5 0.496,0 1.213,-2.683 1.594,-5.962 0.536,-4.622 1.12,-6.099 2.598,-6.568 1.048,-0.333 1.906,-1.426 1.906,-2.43 0,-1.004 0.675,-2.085 1.5,-2.402 0.825,-0.316 1.5,-1.324 1.5,-2.239 0,-1.808 3.613,-5.399 5.432,-5.399 0.62,0 1.763,-0.883 2.541,-1.963 0.779,-1.08 2.673,-2.24 4.21,-2.577 1.537,-0.338 3.051,-1.029 3.365,-1.537 0.313,-0.508 1.668,-0.923 3.011,-0.923 1.343,0 2.441,-0.45 2.441,-1 0,-0.55 1.8,-1 4,-1 3.6,0 4,-0.25 4,-2.5 0,-2.25 -0.4,-2.5 -4,-2.5 -2.2,0 -4,-0.45 -4,-1 0,-0.55 -1.098,-1 -2.441,-1 -1.343,0 -2.698,-0.415 -3.011,-0.923 -0.314,-0.508 -1.828,-1.199 -3.365,-1.537 -1.537,-0.337 -3.431,-1.497 -4.21,-2.577 -0.778,-1.08 -1.921,-1.963 -2.541,-1.963 -1.819,0 -5.432,-3.591 -5.432,-5.399 0,-0.915 -0.675,-1.923 -1.5,-2.239 -0.825,-0.317 -1.5,-1.398 -1.5,-2.402 0,-1.004 -0.858,-2.097 -1.906,-2.43 -1.478,-0.469 -2.062,-1.946 -2.598,-6.568 C 432.115,223.683 431.398,221 430.902,221 430.378,221 430,199.429 430,169.5 c 0,-28.461 -0.388,-51.5 -0.868,-51.5 -0.478,0 -1.124,-1.903 -1.436,-4.228 -0.312,-2.326 -1.046,-4.389 -1.631,-4.584 -0.586,-0.195 -1.065,-0.893 -1.065,-1.551 0,-0.657 -0.9,-1.844 -2,-2.637 -1.1,-0.793 -2,-2.062 -2,-2.821 0,-1.791 -6.388,-8.179 -8.179,-8.179 -0.759,0 -2.028,-0.9 -2.821,-2 -0.793,-1.1 -1.98,-2 -2.637,-2 -0.658,0 -1.356,-0.479 -1.551,-1.065 -0.195,-0.585 -2.258,-1.319 -4.584,-1.631 C 398.903,86.992 397,86.346 397,85.868 397,85.391 384.4,85 369,85 h -28 v 104 c 0,57.2 -0.285,104 -0.633,104 -0.825,0 -4.367,-4.088 -4.367,-5.041 0,-0.405 -2.025,-2.789 -4.5,-5.3 -2.475,-2.51 -4.5,-4.83 -4.5,-5.154 0,-0.656 -1.389,-2.413 -4.75,-6.008 -1.238,-1.323 -2.25,-2.712 -2.25,-3.087 0,-0.374 -1.125,-1.723 -2.5,-2.998 -1.375,-1.274 -2.5,-2.762 -2.5,-3.305 0,-0.544 -2.025,-3.043 -4.5,-5.554 -2.475,-2.511 -4.5,-5.008 -4.5,-5.55 0,-0.542 -1.35,-2.276 -3,-3.853 -1.65,-1.576 -3,-3.44 -3,-4.141 0,-1.365 -3.748,-5.009 -5.153,-5.009 -0.466,0 -0.847,-0.618 -0.847,-1.374 0,-0.755 -1.8,-3.342 -4,-5.749 -2.2,-2.407 -4,-4.744 -4,-5.194 0,-0.449 -1.575,-2.303 -3.5,-4.118 -1.925,-1.816 -3.5,-3.795 -3.5,-4.399 0,-0.603 -1.238,-2.391 -2.75,-3.974 -3.657,-3.825 -7.25,-8.455 -7.25,-9.342 0,-0.393 -0.9,-1.001 -2,-1.35 -1.1,-0.349 -2,-1.396 -2,-2.327 0,-0.931 -1.565,-3.038 -3.478,-4.683 -1.914,-1.644 -3.489,-3.532 -3.5,-4.195 -0.012,-0.662 -1.147,-2.329 -2.522,-3.704 -1.375,-1.375 -2.5,-2.971 -2.5,-3.546 0,-0.575 -0.42,-1.045 -0.933,-1.045 -0.513,0 -1.211,-0.877 -1.551,-1.949 -0.34,-1.072 -1.472,-2.22 -2.516,-2.551 -1.044,-0.331 -2.197,-1.546 -2.563,-2.699 -0.366,-1.153 -2.189,-3.62 -4.051,-5.482 -1.862,-1.862 -3.386,-3.851 -3.386,-4.419 0,-0.569 -1.575,-2.52 -3.5,-4.335 -1.925,-1.816 -3.5,-4.005 -3.5,-4.866 0,-0.86 -0.877,-1.843 -1.949,-2.183 -1.072,-0.34 -2.227,-1.495 -2.567,-2.567 -0.34,-1.072 -1.038,-1.949 -1.551,-1.949 -0.513,0 -0.933,-0.675 -0.933,-1.5 0,-0.825 -0.42,-1.5 -0.933,-1.5 -0.513,0 -1.211,-0.877 -1.551,-1.949 -0.34,-1.072 -1.495,-2.227 -2.567,-2.567 -1.072,-0.34 -1.949,-1.323 -1.949,-2.183 0,-0.861 -1.575,-3.05 -3.5,-4.866 -1.925,-1.815 -3.5,-3.766 -3.5,-4.335 0,-0.568 -1.524,-2.557 -3.386,-4.419 -1.862,-1.862 -3.685,-4.329 -4.051,-5.482 -0.366,-1.153 -1.519,-2.368 -2.563,-2.699 -1.044,-0.331 -2.198,-1.592 -2.565,-2.801 -0.367,-1.21 -2.19,-3.661 -4.051,-5.447 -1.861,-1.786 -3.384,-3.736 -3.384,-4.333 0,-0.597 -1.575,-2.615 -3.5,-4.485 -1.925,-1.869 -3.5,-4.051 -3.5,-4.849 0,-0.798 -0.877,-1.729 -1.949,-2.069 -1.072,-0.34 -2.227,-1.495 -2.567,-2.567 C 178.144,90.877 177.446,90 176.933,90 176.42,90 176,89.518 176,88.929 176,85.29 173.753,85 145.571,85 130.407,85 118,85.391 118,85.868"
       id="path0" />
  </g>
</svg>

<svg id="svg" version="1.1" width="515" height="515" xmlns="http://www.w3.org/2000/svg" xmlns:xlink="http://www.w3.org/1999/xlink" style="display: block;"><g id="svgg"><path id="path0" d="M11.000 66.000 C 11.000 67.333,11.667 68.000,13.000 68.000 C 14.333 68.000,15.000 67.333,15.000 66.000 C 15.000 64.667,14.333 64.000,13.000 64.000 C 11.667 64.000,11.000 64.667,11.000 66.000 M500.533 64.947 C 499.653 66.370,500.775 68.000,502.632 68.000 C 503.508 68.000,504.010 67.297,503.823 66.333 C 503.434 64.324,501.437 63.484,500.533 64.947 M6.000 76.500 C 6.000 77.325,6.675 78.000,7.500 78.000 C 8.325 78.000,9.000 77.325,9.000 76.500 C 9.000 75.675,8.325 75.000,7.500 75.000 C 6.675 75.000,6.000 75.675,6.000 76.500 M4.000 83.500 C 4.000 84.333,4.889 85.000,6.000 85.000 C 7.111 85.000,8.000 84.333,8.000 83.500 C 8.000 82.667,7.111 82.000,6.000 82.000 C 4.889 82.000,4.000 82.667,4.000 83.500 M507.000 83.500 C 507.000 84.333,507.889 85.000,509.000 85.000 C 510.111 85.000,511.000 84.333,511.000 83.500 C 511.000 82.667,510.111 82.000,509.000 82.000 C 507.889 82.000,507.000 82.667,507.000 83.500 M118.000 85.868 C 118.000 86.346,116.097 86.992,113.772 87.304 C 111.446 87.616,109.383 88.350,109.188 88.935 C 108.993 89.521,108.295 90.000,107.637 90.000 C 106.980 90.000,105.793 90.900,105.000 92.000 C 104.207 93.100,102.938 94.000,102.179 94.000 C 100.388 94.000,94.000 100.388,94.000 102.179 C 94.000 102.938,93.100 104.207,92.000 105.000 C 90.900 105.793,90.000 106.980,90.000 107.637 C 90.000 108.295,89.521 108.993,88.935 109.188 C 88.350 109.383,87.616 111.446,87.304 113.772 C 86.992 116.097,86.346 118.000,85.868 118.000 C 85.388 118.000,85.000 141.039,85.000 169.500 C 85.000 199.429,84.622 221.000,84.098 221.000 C 83.602 221.000,82.885 223.683,82.504 226.962 C 81.968 231.584,81.384 233.061,79.906 233.530 C 78.858 233.863,78.000 234.956,78.000 235.960 C 78.000 236.964,77.325 238.045,76.500 238.362 C 75.675 238.678,75.000 239.686,75.000 240.601 C 75.000 242.409,71.387 246.000,69.568 246.000 C 68.948 246.000,67.805 246.883,67.027 247.963 C 66.248 249.043,64.354 250.203,62.817 250.540 C 61.280 250.878,59.766 251.569,59.452 252.077 C 59.139 252.585,57.784 253.000,56.441 253.000 C 55.098 253.000,54.000 253.450,54.000 254.000 C 54.000 254.550,52.200 255.000,50.000 255.000 C 46.400 255.000,46.000 255.250,46.000 257.500 C 46.000 259.750,46.400 260.000,50.000 260.000 C 52.200 260.000,54.000 260.450,54.000 261.000 C 54.000 261.550,55.098 262.000,56.441 262.000 C 57.784 262.000,59.139 262.415,59.452 262.923 C 59.766 263.431,61.280 264.122,62.817 264.460 C 64.354 264.797,66.248 265.957,67.027 267.037 C 67.805 268.117,68.948 269.000,69.568 269.000 C 71.387 269.000,75.000 272.591,75.000 274.399 C 75.000 275.314,75.675 276.322,76.500 276.638 C 77.325 276.955,78.000 278.036,78.000 279.040 C 78.000 280.044,78.858 281.137,79.906 281.470 C 81.384 281.939,81.968 283.416,82.504 288.038 C 82.885 291.317,83.602 294.000,84.098 294.000 C 84.622 294.000,85.000 315.571,85.000 345.500 C 85.000 373.961,85.388 397.000,85.868 397.000 C 86.346 397.000,86.992 398.903,87.304 401.228 C 87.616 403.554,88.350 405.617,88.935 405.812 C 89.521 406.007,90.000 406.705,90.000 407.363 C 90.000 408.020,90.900 409.207,92.000 410.000 C 93.100 410.793,94.000 412.062,94.000 412.821 C 94.000 414.612,100.388 421.000,102.179 421.000 C 102.938 421.000,104.207 421.900,105.000 423.000 C 105.793 424.100,106.980 425.000,107.637 425.000 C 108.295 425.000,108.993 425.479,109.188 426.065 C 109.383 426.650,111.446 427.384,113.772 427.696 C 116.097 428.008,118.000 428.654,118.000 429.132 C 118.000 429.609,130.600 430.000,146.000 430.000 L 174.000 430.000 174.000 326.000 C 174.000 268.800,174.285 222.000,174.633 222.000 C 175.610 222.000,178.997 226.170,179.022 227.403 C 179.033 228.006,180.608 229.846,182.522 231.490 C 184.435 233.135,186.000 235.242,186.000 236.173 C 186.000 237.104,186.877 238.144,187.949 238.484 C 189.021 238.824,190.176 239.979,190.516 241.051 C 190.856 242.123,191.554 243.000,192.067 243.000 C 192.580 243.000,193.000 243.488,193.000 244.083 C 193.000 244.679,194.575 246.696,196.500 248.566 C 198.425 250.435,200.000 252.482,200.000 253.114 C 200.000 253.747,201.575 255.749,203.500 257.565 C 205.425 259.380,207.000 261.140,207.000 261.475 C 207.000 262.150,208.365 263.882,211.750 267.503 C 212.988 268.826,214.000 270.359,214.000 270.909 C 214.000 272.184,218.781 277.000,220.045 277.000 C 220.570 277.000,221.000 277.739,221.000 278.642 C 221.000 279.545,222.350 281.574,224.000 283.150 C 225.650 284.727,227.000 286.418,227.000 286.909 C 227.000 287.399,228.575 289.375,230.500 291.300 C 232.425 293.225,234.000 295.325,234.000 295.967 C 234.000 296.609,235.575 298.620,237.500 300.435 C 239.425 302.251,241.000 304.041,241.000 304.414 C 241.000 304.786,242.012 306.174,243.250 307.497 C 246.708 311.196,248.000 312.853,248.000 313.590 C 248.000 313.960,249.575 315.749,251.500 317.565 C 253.425 319.380,255.000 321.354,255.000 321.951 C 255.000 322.547,256.575 324.565,258.500 326.434 C 260.425 328.304,262.000 330.321,262.000 330.917 C 262.000 331.512,262.420 332.000,262.933 332.000 C 263.446 332.000,264.144 332.877,264.484 333.949 C 264.824 335.021,265.979 336.176,267.051 336.516 C 268.123 336.856,269.000 337.832,269.000 338.684 C 269.000 339.537,270.800 341.981,273.000 344.116 C 275.200 346.251,277.000 348.478,277.000 349.066 C 277.000 349.654,278.462 351.567,280.250 353.317 C 282.038 355.068,283.646 357.175,283.825 358.000 C 284.004 358.825,284.574 359.653,285.093 359.839 C 286.776 360.445,291.000 365.535,291.000 366.958 C 291.000 367.531,291.420 368.000,291.933 368.000 C 292.446 368.000,293.144 368.877,293.484 369.949 C 293.824 371.021,294.979 372.176,296.051 372.516 C 297.123 372.856,298.000 373.840,298.000 374.703 C 298.000 375.565,299.125 377.313,300.500 378.588 C 301.875 379.862,303.000 381.403,303.000 382.011 C 303.000 382.620,303.450 382.840,304.000 382.500 C 304.550 382.160,305.000 382.569,305.000 383.408 C 305.000 384.247,306.524 386.457,308.386 388.319 C 310.248 390.181,312.071 392.648,312.437 393.801 C 312.803 394.954,313.978 396.176,315.049 396.515 C 316.119 396.855,317.266 398.214,317.598 399.534 C 317.929 400.854,319.501 402.962,321.091 404.217 C 322.681 405.473,323.986 407.044,323.991 407.710 C 323.996 408.375,325.800 410.756,328.000 413.000 C 330.200 415.244,332.000 417.707,332.000 418.473 C 332.000 419.239,332.877 420.144,333.949 420.484 C 335.021 420.824,336.176 421.979,336.516 423.051 C 336.856 424.123,337.554 425.000,338.067 425.000 C 338.580 425.000,339.000 425.482,339.000 426.071 C 339.000 429.710,341.247 430.000,369.429 430.000 C 384.593 430.000,397.000 429.609,397.000 429.132 C 397.000 428.654,398.903 428.008,401.228 427.696 C 403.554 427.384,405.617 426.650,405.812 426.065 C 406.007 425.479,406.705 425.000,407.363 425.000 C 408.020 425.000,409.207 424.100,410.000 423.000 C 410.793 421.900,412.062 421.000,412.821 421.000 C 414.612 421.000,421.000 414.612,421.000 412.821 C 421.000 412.062,421.900 410.793,423.000 410.000 C 424.100 409.207,425.000 408.020,425.000 407.363 C 425.000 406.705,425.479 406.007,426.065 405.812 C 426.650 405.617,427.384 403.554,427.696 401.228 C 428.008 398.903,428.654 397.000,429.132 397.000 C 429.612 397.000,430.000 373.961,430.000 345.500 C 430.000 315.571,430.378 294.000,430.902 294.000 C 431.398 294.000,432.115 291.317,432.496 288.038 C 433.032 283.416,433.616 281.939,435.094 281.470 C 436.142 281.137,437.000 280.044,437.000 279.040 C 437.000 278.036,437.675 276.955,438.500 276.638 C 439.325 276.322,440.000 275.314,440.000 274.399 C 440.000 272.591,443.613 269.000,445.432 269.000 C 446.052 269.000,447.195 268.117,447.973 267.037 C 448.752 265.957,450.646 264.797,452.183 264.460 C 453.720 264.122,455.234 263.431,455.548 262.923 C 455.861 262.415,457.216 262.000,458.559 262.000 C 459.902 262.000,461.000 261.550,461.000 261.000 C 461.000 260.450,462.800 260.000,465.000 260.000 C 468.600 260.000,469.000 259.750,469.000 257.500 C 469.000 255.250,468.600 255.000,465.000 255.000 C 462.800 255.000,461.000 254.550,461.000 254.000 C 461.000 253.450,459.902 253.000,458.559 253.000 C 457.216 253.000,455.861 252.585,455.548 252.077 C 455.234 251.569,453.720 250.878,452.183 250.540 C 450.646 250.203,448.752 249.043,447.973 247.963 C 447.195 246.883,446.052 246.000,445.432 246.000 C 443.613 246.000,440.000 242.409,440.000 240.601 C 440.000 239.686,439.325 238.678,438.500 238.362 C 437.675 238.045,437.000 236.964,437.000 235.960 C 437.000 234.956,436.142 233.863,435.094 233.530 C 433.616 233.061,433.032 231.584,432.496 226.962 C 432.115 223.683,431.398 221.000,430.902 221.000 C 430.378 221.000,430.000 199.429,430.000 169.500 C 430.000 141.039,429.612 118.000,429.132 118.000 C 428.654 118.000,428.008 116.097,427.696 113.772 C 427.384 111.446,426.650 109.383,426.065 109.188 C 425.479 108.993,425.000 108.295,425.000 107.637 C 425.000 106.980,424.100 105.793,423.000 105.000 C 421.900 104.207,421.000 102.938,421.000 102.179 C 421.000 100.388,414.612 94.000,412.821 94.000 C 412.062 94.000,410.793 93.100,410.000 92.000 C 409.207 90.900,408.020 90.000,407.363 90.000 C 406.705 90.000,406.007 89.521,405.812 88.935 C 405.617 88.350,403.554 87.616,401.228 87.304 C 398.903 86.992,397.000 86.346,397.000 85.868 C 397.000 85.391,384.400 85.000,369.000 85.000 L 341.000 85.000 341.000 189.000 C 341.000 246.200,340.715 293.000,340.367 293.000 C 339.542 293.000,336.000 288.912,336.000 287.959 C 336.000 287.554,333.975 285.170,331.500 282.659 C 329.025 280.149,327.000 277.829,327.000 277.505 C 327.000 276.849,325.611 275.092,322.250 271.497 C 321.012 270.174,320.000 268.785,320.000 268.410 C 320.000 268.036,318.875 266.687,317.500 265.412 C 316.125 264.138,315.000 262.650,315.000 262.107 C 315.000 261.563,312.975 259.064,310.500 256.553 C 308.025 254.042,306.000 251.545,306.000 251.003 C 306.000 250.461,304.650 248.727,303.000 247.150 C 301.350 245.574,300.000 243.710,300.000 243.009 C 300.000 241.644,296.252 238.000,294.847 238.000 C 294.381 238.000,294.000 237.382,294.000 236.626 C 294.000 235.871,292.200 233.284,290.000 230.877 C 287.800 228.470,286.000 226.133,286.000 225.683 C 286.000 225.234,284.425 223.380,282.500 221.565 C 280.575 219.749,279.000 217.770,279.000 217.166 C 279.000 216.563,277.762 214.775,276.250 213.192 C 272.593 209.367,269.000 204.737,269.000 203.850 C 269.000 203.457,268.100 202.849,267.000 202.500 C 265.900 202.151,265.000 201.104,265.000 200.173 C 265.000 199.242,263.435 197.135,261.522 195.490 C 259.608 193.846,258.033 191.958,258.022 191.295 C 258.010 190.633,256.875 188.966,255.500 187.591 C 254.125 186.216,253.000 184.620,253.000 184.045 C 253.000 183.470,252.580 183.000,252.067 183.000 C 251.554 183.000,250.856 182.123,250.516 181.051 C 250.176 179.979,249.044 178.831,248.000 178.500 C 246.956 178.169,245.803 176.954,245.437 175.801 C 245.071 174.648,243.248 172.181,241.386 170.319 C 239.524 168.457,238.000 166.468,238.000 165.900 C 238.000 165.331,236.425 163.380,234.500 161.565 C 232.575 159.749,231.000 157.560,231.000 156.699 C 231.000 155.839,230.123 154.856,229.051 154.516 C 227.979 154.176,226.824 153.021,226.484 151.949 C 226.144 150.877,225.446 150.000,224.933 150.000 C 224.420 150.000,224.000 149.325,224.000 148.500 C 224.000 147.675,223.580 147.000,223.067 147.000 C 222.554 147.000,221.856 146.123,221.516 145.051 C 221.176 143.979,220.021 142.824,218.949 142.484 C 217.877 142.144,217.000 141.161,217.000 140.301 C 217.000 139.440,215.425 137.251,213.500 135.435 C 211.575 133.620,210.000 131.669,210.000 131.100 C 210.000 130.532,208.476 128.543,206.614 126.681 C 204.752 124.819,202.929 122.352,202.563 121.199 C 202.197 120.046,201.044 118.831,200.000 118.500 C 198.956 118.169,197.802 116.908,197.435 115.699 C 197.068 114.489,195.245 112.038,193.384 110.252 C 191.523 108.466,190.000 106.516,190.000 105.919 C 190.000 105.322,188.425 103.304,186.500 101.434 C 184.575 99.565,183.000 97.383,183.000 96.585 C 183.000 95.787,182.123 94.856,181.051 94.516 C 179.979 94.176,178.824 93.021,178.484 91.949 C 178.144 90.877,177.446 90.000,176.933 90.000 C 176.420 90.000,176.000 89.518,176.000 88.929 C 176.000 85.290,173.753 85.000,145.571 85.000 C 130.407 85.000,118.000 85.391,118.000 85.868 M4.000 431.500 C 4.000 432.333,4.889 433.000,6.000 433.000 C 7.111 433.000,8.000 432.333,8.000 431.500 C 8.000 430.667,7.111 430.000,6.000 430.000 C 4.889 430.000,4.000 430.667,4.000 431.500 M507.000 431.500 C 507.000 432.333,507.889 433.000,509.000 433.000 C 510.111 433.000,511.000 432.333,511.000 431.500 C 511.000 430.667,510.111 430.000,509.000 430.000 C 507.889 430.000,507.000 430.667,507.000 431.500 M6.000 438.500 C 6.000 439.325,6.675 440.000,7.500 440.000 C 8.325 440.000,9.000 439.325,9.000 438.500 C 9.000 437.675,8.325 437.000,7.500 437.000 C 6.675 437.000,6.000 437.675,6.000 438.500 M11.000 449.000 C 11.000 450.333,11.667 451.000,13.000 451.000 C 14.333 451.000,15.000 450.333,15.000 449.000 C 15.000 447.667,14.333 447.000,13.000 447.000 C 11.667 447.000,11.000 447.667,11.000 449.000 M500.000 449.000 C 500.000 450.333,500.667 451.000,502.000 451.000 C 503.333 451.000,504.000 450.333,504.000 449.000 C 504.000 447.667,503.333 447.000,502.000 447.000 C 500.667 447.000,500.000 447.667,500.000 449.000 M492.000 457.500 C 492.000 458.325,492.675 459.000,493.500 459.000 C 494.325 459.000,495.000 458.325,495.000 457.500 C 495.000 456.675,494.325 456.000,493.500 456.000 C 492.675 456.000,492.000 456.675,492.000 457.500 " stroke="none" fill="#000000" fill-rule="evenodd"></path></g></svg>
